X:1
T:Nocturne  Op.9  No.2
T:Nocturne  Op.9  No.2
T:Chopin
C:Fredrik Chopin
%%score { 1 | 2 }
L:1/8
Q:1/4=60
M:12/8
K:Eb
V:1 treble nm="Piano" snm="Pno."
V:2 bass 
V:1
"^Andante""_espress. dolce"!p! !2!B | (!5!g3- g!3!fg f3 e2) (B | %2
!<(! g2 !turn!!1!!4!!3!!2!!1!=c c'2!<)! g b3 a2 g) | !1!!4!f3 (g2 d) e3 !2!c3 | %4
 (Bd')(c' b/a/g/!4!a/)(c/d/ e3) z2 (B |!p! g3) f/g/P!3!f/=e/f/g/ f !>!_e2- e/f/Pe/d/!3!e/f/ | %6
"_cresc."!<(! g/=B/c/(!3!_d/c/)(!3!f/ =e/)(!3!a/g/)(!4!_d'/c'/g/!<)!!>(! !4!b3)!>)! a2 g | %7
 !trill(!T!1!!3!!2!f3{=ef} .g(!5!g!2!d) (!3!_e3 c3) | %8
 (Bd')(.c' .b/.a/.g/.!3!a/{/!4!a}c/d/) e3- ede |!p! f3 (!>!g2 f)!pp! (!3!f3 c3) | %10
"_simile""^poco rit." (.!3!e.!2!e.!1!e !3!e)(d/e/f/>e/ !4!e3) B3 | %11
"^a tempo"!f! !4!b3 !5!=a2 g !5![=Af]3 !4![Bd]3 | %12
 [Ge]3 (.!5![=Ad].[Ac].[Ad] [FB])"_poco rallent."!<(!(!4![^F=B][=EB] [E_Bc]!4![=F=Ac][_Ad])!<)! | %13
"^a tempo"({GB)e} g2 (=A/B/ !>!_c/B/^c/!1!d/!>!!5!g/>f/) !3!f2 e- e/f/Pe/d/e/f/ | %14
!<(! g/=B/c/(_d/c/)(f/!<)!"_cresc." =e/)(a/g/)(_d'/c'/g/ b3)!>(! a2 g!>)! | %15
!p! !trill(!Tf3{=ef} .g(gd)!<(! _e3 c3!<)! | %16
 (Bd')(_d' !5!c'/4!4!=b/4!3!_b/4!1!=a/4!4!_a/4!3!f/4!2!d/4!>!_c/4)!2!B/4!3!d/4(3g/4f/4!3!e/4 !2!e3- ed!3!e | %17
 (f3 g2 f) (f3 c3) | (4:3:4(eeee ed/e/f/>e/ e3)!<(! B3!<)! |!f! (b3 =a2) g!>(! [=Af]3 [Bd]3!>)! | %20
 [Ge]3 (.[=Ad].[Ac].[Ad])!<(! ([FB]"_poco rallent."[^F=B][=EB] [E_Bc][=F=Ac][_Ad])!<)! | %21
"^a tempo"({GB)e} g2 (=A/B/ !>!_c/B/^c/d/!>!g/>f/)!>(! f2!>)! (e!<(! e/)f/Te/d/e/(f/!<)! | %22
 g/)=B/c/(_d/c/)(f/!<(! =e/)(a/g/)(_d'/c'/g/{/!2!g} b3) a2 g!<)! | %23
 !trill(!T!1!!3!!2!f3{=ef} !wedge!g(gd) _e3 c3 | %24
 (B/d'^c'/!5!=c'/=b/ _b/!1!=a/)!wedge!!4!_a/(3(=A/4B/4c/4^c/4!1!d/4(3!5!g/4f/4e/4) e6 | %25
!p! e3 (fef g6) |!pp! (e3- e/f/e/f/e/f/"_poco rubato" !5!g2) (!turn!e !5!e')!4!d'!1!c' | %27
 !4!b2 (!5!=a _a)cd ef/Pe/d/e/"_dolciss."{e} g'(.!4!f'/.!3!e'/.!2!d'/.!1!c'/ | %28
 !3!_c'!4!b!3!__b) (!3!b/a/)(!3!a/g/)(!4!g/>f/) !>!!3!e6 | %29
!p! e3- (8:6:8e/(f/e/f/e/)!<(!(f/e/)f/!<)! e6 | %30
!f!"_con forza" !wedge!!3!e(A/!3!B/TA/G/ A/!1!_c/!2!e/!3!a/e'/) z/4 (!3!f'/4 g'e')!>(!!8va(! [e'e'']2!>)! [d'd'']"^stretto"[c'=c''] | %31
 [_c'_c''][bb'][__b__b'] [_a_a'][=g=g'][dd'] [ee'] !>![e'e'']3 [ff'][=c'=c''] | %32
!ff! !^![_c'_c'']6 !^!!fermata![bb']6 | %33
[M:6/4]"_Senza tempo"[Q:1/4=35] !3!_c''/4!2!b'/4!4!=c''/4!1!=a'/4[Q:1/4=40]!<(! _c''/4b'/4=c''/4a'/4[Q:1/4=60] _c''/4b'/4=c''/4a'/4 _c''/4b'/4=c''/4a'/4[Q:1/4=70] _c''/4b'/4=c''/4a'/4 _c''/4b'/4=c''/4a'/4!<)! | %34
 _c''/4b'/4=c''/4=a'/4[Q:1/4=80] _c''/4b'/4=c''/4a'/4 _c''/4b'/4=c''/4a'/4 _c''/4b'/4=c''/4a'/4!>(! _c''/4b'/4=c''/4a'/4 _c''/4b'/4=c''/4!>)!a'/4 | %35
[M:2/4][Q:1/4=50] _c''/4b'/4d''/4=c''/4"_rallent. smorz." b'/4=a'/4_a'/4g'/4[Q:1/4=35] (f'/4d'/4e'/4c'/4[Q:1/4=20] b/4a/4c/4d/4)!8va)! | %36
[M:12/8]!pp!"^a tempo"[Q:1/4=60] ([Ge]Bg [Ge]Bg [Ge]Bg [Ge]Bg) | %37
!ppp! [Ge]3 [ge']3 !fermata![G,E]6 |] %38
V:2
 z | %1
!ped! .E,,(!2![G,E][B,EG])!ped-up!!ped! .E,([A,D][_CDA])!ped-up!!ped! .E,,([G,E][B,EG])!ped-up!!ped! .D,,([G,E][B,EG])!ped-up! | %2
"_Ped. simile" C,,[G,=E][B,EG] C,[G,E][CEB] F,,[F,_D][B,DE] F,,[F,C][A,CF] | %3
 B,,[F,D][B,DA] =B,,[G,F][DFG] C,[G,E][CEG] =A,,[_G,E][CE_G] | %4
 B,,[F,E][B,EA] B,,,[F,D][B,A] E,,[G,E][B,EG] E,[G,E][B,EG] | %5
 E,[G,E][B,EG] E,[A,D][_CDA] E,[G,E][B,EG] D,[G,E][B,EG] | %6
 C,[G,=E][B,EG] C,[G,E][CEB] F,,[F,_D][B,DE] F,,[F,C][A,CF] | %7
 B,,[F,D][B,DA] =B,,[G,F][DFG] C,[G,E][CEG] =A,,[_G,E][CE_G] | %8
 B,,[F,E][B,EA] B,,,[F,D][B,A] E,,[G,E][B,EG] E,[G,E][B,EG] | %9
 B,,([F,D][B,DF]) B,,([F,D][B,DF]) =A,,([F,C][CF]) A,,([F,C][CF]) | %10
 _A,,[E,C][A,CE] A,,,[E,_C][A,CE] E,,([G,E][B,EG]) E,([G,E][B,EG]) | %11
 =E,,[=E,_D][B,DG] E,,[E,C][B,CG] F,,[F,E][CE=A] G,,[G,=D][B,DB] | %12
 C,,[G,E][CEG] F,,[F,E][CEF] [B,D][=A,^D]^G, =G,[F,C_E][B,F] | %13
 E,,[G,E][B,EG] E,[A,D][B,DA] E,[G,E][B,EG] D,[G,E][B,EG] | %14
 C,[G,=E][B,EG] C,[G,E][CEB] F,,[F,_D][B,DE] F,,[F,C][A,CF] | %15
 B,,[F,D][B,DA] =B,,[G,F][DFG] C,[G,E][CEG] =A,,[_G,E][CE_G] | %16
 B,,[F,E][B,EA] B,,,[F,D][B,DA] E,,[G,E][B,EG] E,[G,E][B,EG] | %17
 B,,[F,D][B,DF] B,,[F,D][B,DF] =A,,[F,C][CF] A,,[F,C][CF] | %18
 A,,[E,C][A,CE] A,,,[E,_C][A,CE] [E,,E,][G,E][B,EG] [E,,E,][G,E][B,EG] | %19
 =E,,[=E,_D][B,DG] E,,[E,C][B,CG] F,,[F,E][CE=A] G,,[G,=D][B,DB] | %20
 C,,[G,E][CEG] F,,[F,E][CEF] [B,D][=A,^D]^G, =G,[F,C_E][B,F] | %21
 .E,,[G,E][B,EG] .E,[A,D][B,DA] .E,[G,E][B,EG] D,[G,E][B,EG] | %22
 .C,[G,=E][B,EG] .C,[G,E][CEB] F,,[F,_D][B,DE] F,,[F,C][A,CF] | %23
 B,,[F,D][B,DA] =B,,[G,F][DFG] C,[G,E][CEG] =A,,[_G,E][CE_G] | %24
 B,,[F,E][B,EA] B,,,[F,D][B,DA] E,,[G,E][B,EG] E,[G,E][B,EG] | %25
 E,,[A,_CE][CEA] E,[A,CE][CEA] E,,[G,E][B,EG] E,[G,E][B,EG] | %26
 E,,[A,_CE][CEA] E,[A,CE][CEA] E,,[G,B,E][B,EG] E,[G,E][B,EG] | %27
 E,[F,D][B,A] E,[F,D][B,A] E,[G,E][B,G] =A,,[F,E][CEF] | %28
 B,,[F,E][B,EA] B,,,[F,D][B,DA] E,,[G,E][B,EG] E,[G,E][B,EG] | %29
 A,,,!1![E,A,_C]!2![A,CE] [CEA][A,CE]!1![E,A,_C] E,,[G,E][B,EG] E,[G,E][B,EG] | %30
 A,,,[E,A,][A,_CE] [CEA][A,CE][E,A,C] E,,[G,E][B,EG] =A,,[G,E][=CEF] | %31
 B,,[F,B,E][B,EA] =B,,[G,F][DFG] C,[G,E][CG] =A,,[F,CE][CEF] | %32
!ped! (8:6:8B,,,B,,F,A, DB,FA !fermata!d6 |[M:6/4] z6 | z6 |[M:2/4] z4 | %36
[M:12/8]!ped! (E,,!ped-up!B,B,, E,B,B,,) (E,,B,B,, E,B,B,, | %37
 [E,B,]3) !2![EB]3 !fermata![E,,B,,]6 |] %38

